X: 110
T: Trip to Durrow
R: reel
Z: 2012 John Chambers <jc@trillian.mit.edu>
B: "100 Essential Irish Session Tunes" 1995 Dave Mallinson, ed.
M: 4/4
L: 1/8
K: D
|:\
"D"D2FD ADFA | "D7"defd "G"BABc | dBBA dBBA | "D"FADE "A7"FE~E2 |\
"D"D2FD ADFA | "D7"defd "G"BABc | dBBA "D"FAdB | "A7"AFEG "D"FDD2 :|
|:\
"D"d2de f2fg | afdf gfed | "Em"cdef gebe | gebe "A7"gfef |\
"D"dcde fefg | afdf "D7"gfed | "G"cdef "Em"gbag | "A7"fdec "D"d3e |
"D"fdec d2de | fded "G"BABc | dBBA dBBA | "D"FADE "A7"FE~E2 |\
"D"D2FD ADFA | "D7"defd "G"BABc | dBBA "D"FAdB | "A7"AFEG "D"FDD2 :|

%%sep 2 1 500
%%sep 1 1 500

